X:229
M:C|
L:1/8
K:G
gbeg fadf|egce d2cB|ceAc BdGB|AcDF G2Gd|gbeg fadf|dece d2cB|
ceAc BdGB|AcDF GDB,G,||

